src/assets/logo/logo-wText-small.svg

<svg width="65" height="65" viewBox="0 0 17.198 17.198" xml:space="preserve" xmlns:xlink="http://www.w3.org/1999/xlink" xmlns="http://www.w3.org/2000/svg"><defs><linearGradient id="a"><stop stop-color="#51504f" offset="0"/><stop stop-color="#939598" offset=".5"/><stop stop-color="#51504f" offset="1"/></linearGradient><linearGradient xlink:href="#a" id="b" gradientTransform="scale(4.00765 .24952)" x1=".214" y1="45.799" x2="114.723" y2="45.799" gradientUnits="userSpaceOnUse"/></defs><g style="stroke-width:31.2721;stroke-dasharray:none"><g style="stroke-width:107.171;stroke-dasharray:none"><g style="stroke-width:38.7558;stroke-dasharray:none"><g style="stroke-width:38.7558;stroke-dasharray:none"><path d="M69.974 34.035v3.929c6.803 5.711 11.137 14.275 11.137 23.833 0 10.928-5.665 20.556-14.211 26.105V59.087l-9.219-5.079v37.938c-1.005.256-2.03.463-3.071.618v-58.51l-9.217-5.082v63.591a30.883 30.883 0 0 1-3.073-.618V9.071l-9.217-5.08v83.912c-8.547-5.55-14.211-15.179-14.211-26.106 0-9.558 4.333-18.122 11.138-23.833v-3.929c-8.619 6.218-14.241 16.345-14.241 27.762 0 18.864 15.348 34.212 34.212 34.212 18.865 0 34.213-15.348 34.213-34.212-.001-11.417-5.623-21.544-14.24-27.762z" style="stroke-width:75.5586;stroke-dasharray:none" transform="matrix(.25134 0 0 .1869 -3.968 -.746)" fill="#fe904d"/></g></g></g></g></svg>

<?xml version="1.0" encoding="UTF-8" standalone="no"?>
<!-- Created with Inkscape (http://www.inkscape.org/) -->

<svg
   width="17.197916mm"
   height="17.197916mm"
   viewBox="0 0 17.197916 17.197916"
   version="1.1"
   id="svg1"
   xml:space="preserve"
   inkscape:version="1.4.2 (ebf0e940d0, 2025-05-08)"
   sodipodi:docname="logo-wText-small.svg"
   xmlns:inkscape="http://www.inkscape.org/namespaces/inkscape"
   xmlns:sodipodi="http://sodipodi.sourceforge.net/DTD/sodipodi-0.dtd"
   xmlns:xlink="http://www.w3.org/1999/xlink"
   xmlns="http://www.w3.org/2000/svg"
   xmlns:svg="http://www.w3.org/2000/svg"><sodipodi:namedview
     id="namedview1"
     pagecolor="#ffffff"
     bordercolor="#000000"
     borderopacity="0.25"
     inkscape:showpageshadow="2"
     inkscape:pageopacity="0.0"
     inkscape:pagecheckerboard="0"
     inkscape:deskcolor="#d1d1d1"
     inkscape:document-units="px"
     inkscape:zoom="1.0950134"
     inkscape:cx="140.63755"
     inkscape:cy="-39.72554"
     inkscape:window-width="975"
     inkscape:window-height="902"
     inkscape:window-x="8"
     inkscape:window-y="556"
     inkscape:window-maximized="0"
     inkscape:current-layer="layer1" /><defs
     id="defs1"><linearGradient
       id="SvgjsLinearGradient17875"><stop
         id="SvgjsStop17876"
         stop-color="#51504f"
         offset="0" /><stop
         id="SvgjsStop17877"
         stop-color="#939598"
         offset="0.5" /><stop
         id="SvgjsStop17878"
         stop-color="#51504f"
         offset="1" /></linearGradient><linearGradient
       inkscape:collect="always"
       xlink:href="#SvgjsLinearGradient17875"
       id="linearGradient5"
       gradientTransform="scale(4.0076543,0.24952252)"
       x1="0.21389072"
       y1="45.799473"
       x2="114.72339"
       y2="45.799473"
       gradientUnits="userSpaceOnUse" /></defs><g
     inkscape:label="Layer 1"
     inkscape:groupmode="layer"
     id="layer1"
     transform="matrix(0.42303395,0,0,0.42303395,-31.177818,-51.031598)"
     style="stroke-width:31.2721;stroke-dasharray:none"><g
       id="g8"
       transform="matrix(0.3793371,0,0,0.34395833,43.963771,78.079614)"
       style="stroke-width:107.171;stroke-dasharray:none"><g
         transform="matrix(3.0268351,0,0,2.5263172,-462.98592,13.912213)"
         id="g3"
         style="stroke-width:38.7558;stroke-dasharray:none"><defs
           id="SvgjsDefs17868"><linearGradient
             id="linearGradient3"><stop
               id="stop1"
               stop-color="#51504f"
               offset="0" /><stop
               id="stop2"
               stop-color="#939598"
               offset="0.5" /><stop
               id="stop3"
               stop-color="#51504f"
               offset="1" /></linearGradient><linearGradient
             id="RESERVED_FOR_INKSCAPE_DUPLICATE_DEF_000000000"><stop
               id="SvgjsStop17880"
               stop-color="#51504f"
               offset="0" /><stop
               id="SvgjsStop17881"
               stop-color="#939598"
               offset="0.5" /><stop
               id="SvgjsStop17882"
               stop-color="#51504f"
               offset="1" /></linearGradient></defs><g
           id="g7"
           style="stroke-width:38.7558;stroke-dasharray:none"><g
             id="SvgjsG17869"
             featureKey="symbolFeature-0"
             transform="matrix(0.51745398,0,0,0.50843345,170.6891,41.434392)"
             fill="#fe904d"
             style="stroke-width:75.5586;stroke-dasharray:none"><path
               fill="#fe904d"
               d="m 69.974,34.035 v 3.929 c 6.803,5.711 11.137,14.275 11.137,23.833 0,10.928 -5.665,20.556 -14.211,26.105 V 59.087 l -9.219,-5.079 v 37.938 c -1.005,0.256 -2.03,0.463 -3.071,0.618 V 34.054 L 45.393,28.972 V 92.563 C 44.351,92.408 43.326,92.201 42.32,91.945 V 9.071 L 33.103,3.991 V 87.903 C 24.556,82.353 18.892,72.724 18.892,61.797 c 0,-9.558 4.333,-18.122 11.138,-23.833 v -3.929 c -8.619,6.218 -14.241,16.345 -14.241,27.762 0,18.864 15.348,34.212 34.212,34.212 18.865,0 34.213,-15.348 34.213,-34.212 C 84.213,50.38 78.591,40.253 69.974,34.035 Z"
               id="path1"
               style="stroke-width:75.5586;stroke-dasharray:none" /></g></g><g
           id="SvgjsG17870"
           featureKey="nameFeature-0"
           transform="matrix(0.61785869,0,0,0.61785869,85.470372,11.939113)"
           fill="url(#SvgjsLinearGradient17875)"
           style="fill:url(#linearGradient5);stroke-width:62.726;stroke-dasharray:none" /></g></g></g></svg>
